nameplates/victor.svg

<svg xmlns="http://www.w3.org/2000/svg" width="1607" height="469" fill="none"><path fill="#fff" d="m409.853 63.494-99.762 396.925-79.714 5.762L61.947 91.34 0 34.807l252.827-18.844-48.38 61.694 88.837 246.653 51.262-257.936-58.945-55.452L460.155 2.16l-50.302 61.214zm4.322 369.2 43.099-45.97 6.002-145.712-48.02-45.37 151.384-51.011 2.401 242.573 44.539 46.45zm38.417-359.718 58.224-65.414 59.305 65.414-59.305 60.013zm64.107 105.383-34.695 63.733-6.003 145.832 39.017 35.528 1.801-245.213zm254.267 227.209-129.054-3.241-27.372-33.607 58.105-323.23 37.696-36.488 128.334 5.281 24.61 31.207-10.564 78.137-68.549 1.92 12.245-56.412-63.627.6-45.139 273.779 61.466 1.921 13.086-78.377h62.906L807.342 367.76l-36.256 37.808z"/><path fill="#fff" d="m983.336 246.533-5.282 15.604 19.808 90.739 14.168 11.283 54.5-26.886 15.37 31.447-144.784 87.619-56.423-44.17-1.321-120.506-6.603-48.971-46.819-8.281-1.681-39.129 53.662-.96 2.882-40.209 81.274-92.3 33.494 8.642-15.366 126.748 91.355-11.643 8.65 29.887-56.31 25.685-40.214 5.281zm98.324 2.761 16.08-58.453 43.7-39.608 63.27-14.403 63.15 13.803 41.41 40.328 14.29 58.453-13.57 59.053-42.97 38.768-63.15 19.204-62.55-15.963-43.82-39.009-15.6-62.173zm70.11.6 6.12 29.886 17.89 22.085 26.89 8.282 27.97-8.882 17.77-21.605 6.48-30.006-7.2-29.887-16.09-23.165-29.05-3.72-26.41 5.521-17.77 21.364-6.72 29.887zm384.4-18.364-31.81 35.408-4.81 73.096 14.65 114.744-170.23 2.521 13.68-117.386-3.24-100.461-10.8-114.265 147.3-.6 10.33 33.127 105.04-36.368.72 124.467-70.83-14.523z"/></svg>

<svg width="1607" height="469" viewBox="0 0 1607 469" fill="none" xmlns="http://www.w3.org/2000/svg">
<path d="M409.853 63.4937L310.091 460.419L230.377 466.181L61.9462 91.3397L0 34.8075L252.827 15.9634L204.447 77.6568L293.284 324.31L344.546 66.3743L285.601 10.9224L460.155 2.16046L409.853 63.3737V63.4937Z" fill="white"/>
<path d="M414.175 432.694L457.274 386.724L463.276 241.012L415.256 195.642L566.64 144.631L569.041 387.204L613.58 433.654L414.175 432.694ZM452.592 72.9758L510.816 7.56165L570.121 72.9758L510.816 132.989L452.592 72.9758ZM516.699 178.359L482.004 242.092L476.001 387.924L515.018 423.452L516.819 178.239L516.699 178.359Z" fill="white"/>
<path d="M770.966 405.568L641.912 402.327L614.54 368.72L672.645 45.4898L710.341 9.00195L838.675 14.2831L863.285 45.4898L852.721 123.627L784.172 125.547L796.417 69.135L732.79 69.7351L687.651 343.514L749.117 345.435L762.203 267.058H825.109L807.342 367.76L771.086 405.568H770.966Z" fill="white"/>
<path d="M983.336 246.533L978.054 262.137L997.862 352.876L1012.03 364.159L1066.53 337.273L1081.9 368.72L937.116 456.339L880.693 412.169L879.372 291.663L872.769 242.692L825.95 234.411L824.269 195.282L877.931 194.322L880.813 154.113L962.087 61.8134L995.581 70.4552L980.215 197.203L1071.57 185.56L1080.22 215.447L1023.91 241.132L983.696 246.413L983.336 246.533Z" fill="white"/>
<path d="M1081.66 249.294L1097.74 190.841L1141.44 151.233L1204.71 136.83L1267.86 150.633L1309.27 190.961L1323.56 249.414L1309.99 308.467L1267.02 347.235L1203.87 366.439L1141.32 350.476L1097.5 311.467L1081.9 249.294H1081.66ZM1151.77 249.894L1157.89 279.78L1175.78 301.865L1202.67 310.147L1230.64 301.265L1248.41 279.66L1254.89 249.654L1247.69 219.767L1231.6 196.602L1202.55 192.882L1176.14 198.403L1158.37 219.767L1151.65 249.654L1151.77 249.894Z" fill="white"/>
<path d="M1536.17 231.53L1504.36 266.938L1499.55 340.034L1514.2 454.778L1343.97 457.299L1357.65 339.913L1354.41 239.452L1343.61 125.187L1490.91 124.587L1501.24 157.714L1606.28 121.346L1607 245.813L1536.17 231.29V231.53Z" fill="white"/>
</svg>
